; generated by Slic3r 1.2.9 on 2021-01-10 at 11:46:30

; external perimeters extrusion width = 0.40mm
; perimeters extrusion width = 0.67mm
; infill extrusion width = 0.67mm
; solid infill extrusion width = 0.67mm
; top infill extrusion width = 0.67mm

M107
M190 S50 ; set bed temperature
M104 S200 ; set temperature
G28 ; home all axes
G1 Z5 F5000 ; lift nozzle

M109 S200 ; wait for temperature to be reached
G21 ; set units to millimeters
G90 ; use absolute coordinates
M82 ; use absolute distances for extrusion
G92 E0
G1 Z0.300 F7800.000
G1 E-2.00000 F2400.00000
G92 E0
G1 X39.725 Y57.708 F7800.000
G1 E2.00000 F2400.00000
G1 X41.955 Y56.673 E2.06193 F900.000
G1 X44.000 Y56.393 E2.11392
G1 X156.000 Y56.393 E4.93501
G1 X158.426 Y56.791 E4.99694
G1 X160.599 Y57.941 E5.05887 F900.000
G1 X162.292 Y59.725 E5.12080
G1 X163.327 Y61.955 E5.18273
G1 X163.607 Y64.000 E5.23472
G1 X163.607 Y136.000 E7.04828
G1 X163.209 Y138.426 E7.11021
G1 X162.059 Y140.599 E7.17214
G1 X160.275 Y142.292 E7.23407
G1 X158.045 Y143.327 E7.29601
G1 X156.000 Y143.607 E7.34800
G1 X44.000 Y143.607 E10.16908
G1 X41.574 Y143.209 E10.23101
G1 X39.401 Y142.059 E10.29294
G1 X37.708 Y140.275 E10.35488
G1 X36.673 Y138.045 E10.41681
G1 X36.393 Y136.000 E10.46880
G1 X36.393 Y64.000 E12.28235
G1 X36.791 Y61.574 E12.34428
G1 X37.941 Y59.401 E12.40622
G1 X39.681 Y57.750 E12.46664
G1 X40.104 Y58.133 F7800.000
G1 X40.241 Y58.011 E12.47125 F900.000
G1 X42.431 Y57.105 E12.53095
G1 X44.000 Y56.929 E12.57072
G1 X156.000 Y56.929 E15.39181
G1 X158.337 Y57.326 E15.45151
G1 X160.411 Y58.473 E15.51120 F900.000
G1 X161.989 Y60.241 E15.57090
G1 X162.895 Y62.431 E15.63060
G1 X163.071 Y64.000 E15.67037
G1 X163.071 Y136.000 E17.48393
G1 X162.674 Y138.337 E17.54362
G1 X161.527 Y140.411 E17.60332
G1 X159.759 Y141.989 E17.66302
G1 X157.569 Y142.895 E17.72271
G1 X156.000 Y143.071 E17.76249
G1 X44.000 Y143.071 E20.58357
G1 X41.663 Y142.674 E20.64327
G1 X39.589 Y141.527 E20.70297
G1 X38.011 Y139.759 E20.76266
G1 X37.105 Y137.569 E20.82236
G1 X36.929 Y136.000 E20.86214
G1 X36.929 Y64.000 E22.67569
G1 X37.326 Y61.663 E22.73539
G1 X38.473 Y59.589 E22.79508
G1 X40.059 Y58.173 E22.84865
G1 X40.466 Y58.567 F7800.000
G1 X40.753 Y58.328 E22.85807 F900.000
G1 X44.000 Y57.464 E22.94269
G1 X156.000 Y57.464 E25.76378
G1 X158.243 Y57.861 E25.82115
G1 X160.213 Y59.004 E25.87852 F900.000
G1 X161.672 Y60.753 E25.93590
G1 X162.536 Y64.000 E26.02052
G1 X162.536 Y136.000 E27.83407
G1 X162.139 Y138.243 E27.89145
G1 X160.996 Y140.213 E27.94882
G1 X159.247 Y141.672 E28.00620
G1 X156.000 Y142.536 E28.09081
G1 X44.000 Y142.536 E30.91190
G1 X41.757 Y142.139 E30.96927
G1 X39.787 Y140.996 E31.02665
G1 X38.328 Y139.247 E31.08402
G1 X37.464 Y136.000 E31.16864
G1 X37.464 Y64.000 E32.98219
G1 X37.861 Y61.757 E33.03957
G1 X39.004 Y59.787 E33.09694
G1 X40.420 Y58.606 E33.14339
G1 E31.14339 F2400.00000
G92 E0
G1 X50.682 Y131.419 F7800.000
G1 E2.00000 F2400.00000
G1 X50.741 Y131.884 E2.01180 F900.000
G1 X50.721 Y132.348 E2.02352
G1 X50.623 Y132.803 E2.03524
G1 X50.450 Y133.235 E2.04696
G1 X50.206 Y133.631 E2.05868
G1 X49.898 Y133.981 E2.07040
G1 X49.536 Y134.273 E2.08212
G1 X49.130 Y134.500 E2.09385
G1 X48.691 Y134.655 E2.10557
G1 X48.250 Y134.731 E2.11684
G1 X48.008 Y134.741 E2.12294
G1 X47.751 Y134.731 E2.12942
G1 X47.309 Y134.655 E2.14073
G1 X46.870 Y134.500 E2.15245
G1 X46.464 Y134.273 E2.16417
G1 X46.102 Y133.981 E2.17589
G1 X45.794 Y133.631 E2.18762
G1 X45.550 Y133.235 E2.19934
G1 X45.377 Y132.803 E2.21106
G1 X45.279 Y132.348 E2.22278
G1 X45.259 Y131.884 E2.23450
G1 X45.318 Y131.422 E2.24622
G1 X45.454 Y130.977 E2.25794
G1 X45.664 Y130.561 E2.26967
G1 X45.940 Y130.187 E2.28139
G1 X46.276 Y129.865 E2.29311
G1 X46.662 Y129.605 E2.30483
G1 X47.086 Y129.413 E2.31655
G1 X47.536 Y129.296 E2.32827
G1 X47.983 Y129.258 E2.33957 F900.000
G1 X48.461 Y129.295 E2.35164
G1 X48.914 Y129.413 E2.36343
G1 X49.338 Y129.605 E2.37516
G1 X49.724 Y129.865 E2.38688
G1 X50.060 Y130.187 E2.39860
G1 X50.336 Y130.561 E2.41032
G1 X50.538 Y130.962 E2.42162
G1 X50.664 Y131.362 E2.43217
G1 X50.156 Y131.534 F7800.000
G1 X50.204 Y131.906 E2.44162 F900.000
G1 X50.188 Y132.280 E2.45105
G1 X50.109 Y132.646 E2.46047
G1 X49.970 Y132.993 E2.46990
G1 X49.774 Y133.312 E2.47932
G1 X49.526 Y133.593 E2.48875
G1 X49.235 Y133.828 E2.49817
G1 X48.909 Y134.010 E2.50760
G1 X48.556 Y134.135 E2.51702
G1 X48.193 Y134.197 E2.52629
G1 X48.007 Y134.205 E2.53098
G1 X47.807 Y134.197 E2.53603
G1 X47.444 Y134.135 E2.54530
G1 X47.091 Y134.010 E2.55473
G1 X46.765 Y133.828 E2.56415
G1 X46.474 Y133.593 E2.57358
G1 X46.226 Y133.312 E2.58300
G1 X46.030 Y132.993 E2.59243
G1 X45.891 Y132.646 E2.60185
G1 X45.812 Y132.280 E2.61128
G1 X45.796 Y131.906 E2.62070
G1 X45.843 Y131.535 E2.63013
G1 X45.953 Y131.177 E2.63955
G1 X46.121 Y130.843 E2.64898
G1 X46.344 Y130.542 E2.65840
G1 X46.614 Y130.284 E2.66783
G1 X46.924 Y130.074 E2.67725
G1 X47.265 Y129.920 E2.68668
G1 X47.627 Y129.826 E2.69610
G1 X47.985 Y129.795 E2.70515 F900.000
G1 X48.372 Y129.825 E2.71492
G1 X48.735 Y129.920 E2.72437
G1 X49.076 Y130.074 E2.73380
G1 X49.386 Y130.284 E2.74322
G1 X49.656 Y130.542 E2.75265
G1 X49.879 Y130.843 E2.76207
G1 X50.040 Y131.164 E2.77112
G1 X50.138 Y131.477 E2.77938
G1 X50.511 Y131.658 F7800.000
G1 E0.77938 F2400.00000
G92 E0
G1 X48.028 Y134.905 F7800.000
G1 X47.723 Y134.947 F7800.000
G1 X46.742 Y134.820 F7800.000
G1 X46.218 Y134.685 F7800.000
G1 X46.163 Y134.668 F7800.000
G1 X45.958 Y134.629 F7800.000
G1 E2.00000 F2400.00000
G1 X45.371 Y134.629 E2.01479 F900.000
G1 X45.371 Y133.962 E2.03159
G1 X45.919 Y134.584 E2.05246
G1 X45.371 Y65.945 F7800.000
G1 X45.371 Y65.371 E2.06691 F900.000
G1 X46.241 Y65.371 E2.08882
G1 X45.653 Y65.935 E2.10933
G1 X45.592 Y66.017 E2.11192
G1 X45.428 Y65.963 E2.11627
G1 X45.979 Y66.394 F7800.000
G1 X46.057 Y66.290 E2.11955 F900.000
G1 X46.374 Y65.986 E2.13061
G1 X46.738 Y65.740 E2.14167
G1 X47.138 Y65.559 E2.15273
G1 X47.563 Y65.449 E2.16379
G1 X47.984 Y65.413 E2.17445 F900.000
G1 X48.435 Y65.448 E2.18583
G1 X48.862 Y65.559 E2.19696
G1 X49.262 Y65.740 E2.20802
G1 X49.626 Y65.986 E2.21908
G1 X49.943 Y66.290 E2.23014
G1 X50.204 Y66.643 E2.24120
G1 X50.402 Y67.035 E2.25225
G1 X50.531 Y67.455 E2.26331
G1 X50.586 Y67.890 E2.27437
G1 X50.568 Y68.329 E2.28543
G1 X50.475 Y68.758 E2.29649
G1 X50.311 Y69.165 E2.30755
G1 X50.081 Y69.539 E2.31861
G1 X49.791 Y69.869 E2.32967
G1 X49.450 Y70.145 E2.34073
G1 X49.066 Y70.359 E2.35179
G1 X48.636 Y70.511 E2.36328
G1 X48.044 Y70.587 E2.37832
G1 X47.764 Y70.577 E2.38537
G1 X47.348 Y70.505 E2.39601
G1 X46.934 Y70.359 E2.40707
G1 X46.550 Y70.145 E2.41813
G1 X46.209 Y69.869 E2.42919
G1 X45.919 Y69.539 E2.44025
G1 X45.689 Y69.165 E2.45131
G1 X45.525 Y68.758 E2.46237
G1 X45.432 Y68.329 E2.47343
G1 X45.414 Y67.890 E2.48449
G1 X45.474 Y67.415 E2.49654
G1 X45.602 Y67.027 E2.50683
G1 X45.796 Y66.643 E2.51768
G1 X45.944 Y66.443 E2.52394
G1 X46.410 Y66.713 F7800.000
G1 X46.711 Y66.404 E2.53481 F900.000
G1 X47.000 Y66.209 E2.54358
G1 X47.317 Y66.066 E2.55234
G1 X47.653 Y65.978 E2.56110
G1 X47.986 Y65.950 E2.56952 F900.000
G1 X48.346 Y65.978 E2.57860
G1 X48.683 Y66.066 E2.58739
G1 X49.000 Y66.209 E2.59615
G1 X49.289 Y66.404 E2.60491
G1 X49.540 Y66.645 E2.61367
G1 X49.747 Y66.925 E2.62244
G1 X49.903 Y67.235 E2.63120
G1 X50.005 Y67.568 E2.63996
G1 X50.049 Y67.913 E2.64872
G1 X50.034 Y68.261 E2.65749
G1 X49.961 Y68.601 E2.66625
G1 X49.831 Y68.923 E2.67501
G1 X49.649 Y69.220 E2.68378
G1 X49.419 Y69.481 E2.69254
G1 X49.149 Y69.699 E2.70130
G1 X48.845 Y69.869 E2.71006
G1 X48.511 Y69.987 E2.71898
G1 X48.020 Y70.050 E2.73146
G1 X47.820 Y70.043 E2.73649
G1 X47.483 Y69.985 E2.74510
G1 X47.155 Y69.869 E2.75386
G1 X46.851 Y69.699 E2.76263
G1 X46.581 Y69.481 E2.77139
G1 X46.351 Y69.220 E2.78015
G1 X46.169 Y68.923 E2.78891
G1 X46.039 Y68.601 E2.79768
G1 X45.966 Y68.261 E2.80644
G1 X45.951 Y67.913 E2.81520
G1 X45.999 Y67.534 E2.82483
G1 X46.098 Y67.233 E2.83282
G1 X46.253 Y66.925 E2.84150
G1 X46.374 Y66.761 E2.84662
G1 X46.284 Y66.333 F7800.000
G1 E0.84662 F2400.00000
G92 E0
G1 X50.459 Y69.240 F7800.000
G1 X49.428 Y72.743 F7800.000
G1 X48.911 Y80.775 F7800.000
G1 X100.000 Y100.000 F7800.000
G1 X116.500 Y100.000 F7800.000
G1 X132.524 Y100.000 F7800.000
G1 X142.691 Y108.191 F7800.000
G1 X142.691 Y120.500 F7800.000
G1 X142.476 Y120.129 F7800.000
G1 E2.00000 F2400.00000
G1 X147.524 Y120.129 E2.12714 F900.000
G1 X150.047 Y124.500 E2.25427
G1 X147.524 Y128.871 E2.38141
G1 X142.476 Y128.871 E2.50855
G1 X139.953 Y124.500 E2.63568
G1 X142.446 Y120.181 E2.76131
G1 X142.786 Y120.664 F7800.000
G1 X147.214 Y120.664 E2.87286 F900.000
G1 X149.429 Y124.500 E2.98442
G1 X147.214 Y128.336 E3.09598
G1 X142.786 Y128.336 E3.20754
G1 X140.571 Y124.500 E3.31910
G1 X142.756 Y120.716 E3.42914
G1 X143.095 Y121.200 F7800.000
G1 X146.905 Y121.200 E3.52512 F900.000
G1 X148.810 Y124.500 E3.62110
G1 X146.905 Y127.800 E3.71708
G1 X143.095 Y127.800 E3.81306
G1 X141.190 Y124.500 E3.90904
G1 X143.065 Y121.252 E4.00351
G1 X143.164 Y120.806 F7800.000
G1 X126.047 Y124.500 F7800.000
G1 X123.524 Y128.871 E4.13064 F900.000
G1 X118.476 Y128.871 E4.25778
G1 X116.500 Y125.448 E4.35734
G1 X114.524 Y128.871 E4.45690
G1 X109.476 Y128.871 E4.58403
G1 X106.953 Y124.500 E4.71117
G1 X109.476 Y120.129 E4.83831
G1 X114.524 Y120.129 E4.96544
G1 X116.500 Y123.552 E5.06500
G1 X118.476 Y120.129 E5.16456
G1 X123.524 Y120.129 E5.29169
G1 X126.017 Y124.448 E5.41732
G1 X125.429 Y124.500 F7800.000
G1 X123.214 Y128.336 E5.52888 F900.000
G1 X118.786 Y128.336 E5.64044
G1 X116.571 Y124.500 E5.75199
G1 X118.786 Y120.664 E5.86355
G1 X123.214 Y120.664 E5.97511
G1 X125.399 Y124.448 E6.08516
G1 X124.810 Y124.500 F7800.000
G1 X122.905 Y127.800 E6.18114 F900.000
G1 X119.095 Y127.800 E6.27712
G1 X117.190 Y124.500 E6.37309
G1 X119.095 Y121.200 E6.46907
G1 X122.905 Y121.200 E6.56505
G1 X124.780 Y124.448 E6.65952
G1 X125.117 Y124.757 F7800.000
G1 E4.65952 F2400.00000
G92 E0
G1 X118.691 Y128.500 F7800.000
G1 X116.500 Y129.765 F7800.000
G1 X116.500 Y129.765 F7800.000
G1 X114.309 Y128.500 F7800.000
G1 X114.214 Y128.336 F7800.000
G1 E2.00000 F2400.00000
G1 X109.786 Y128.336 E2.11156 F900.000
G1 X107.571 Y124.500 E2.22312
G1 X109.786 Y120.664 E2.33467
G1 X114.214 Y120.664 E2.44623
G1 X116.429 Y124.500 E2.55779
G1 X114.244 Y128.284 E2.66784
G1 X113.905 Y127.800 F7800.000
G1 X110.095 Y127.800 E2.76382 F900.000
G1 X108.190 Y124.500 E2.85980
G1 X110.095 Y121.200 E2.95577
G1 X113.905 Y121.200 E3.05175
G1 X115.810 Y124.500 E3.14773
G1 X113.935 Y127.748 E3.24220
G1 X113.836 Y128.194 F7800.000
G1 E1.24220 F2400.00000
G92 E0
G1 X107.381 Y124.500 F7800.000
G1 X100.000 Y120.238 F7800.000
G1 X100.000 Y120.238 F7800.000
G1 X92.619 Y124.500 F7800.000
G1 X93.047 Y124.500 F7800.000
G1 E2.00000 F2400.00000
G1 X90.524 Y128.871 E2.12714 F900.000
G1 X85.476 Y128.871 E2.25427
G1 X83.500 Y125.448 E2.35383
G1 X81.524 Y128.871 E2.45339
G1 X76.476 Y128.871 E2.58052
G1 X73.953 Y124.500 E2.70766
G1 X76.476 Y120.129 E2.83480
G1 X81.524 Y120.129 E2.96193
G1 X83.500 Y123.552 E3.06149
G1 X85.476 Y120.129 E3.16105
G1 X90.524 Y120.129 E3.28819
G1 X93.017 Y124.448 E3.41381
G1 X92.429 Y124.500 F7800.000
G1 X90.214 Y128.336 E3.52537 F900.000
G1 X85.786 Y128.336 E3.63693
G1 X83.571 Y124.500 E3.74849
G1 X85.786 Y120.664 E3.86004
G1 X90.214 Y120.664 E3.97160
G1 X92.399 Y124.448 E4.08165
G1 X91.810 Y124.500 F7800.000
G1 X89.905 Y127.800 E4.17763 F900.000
G1 X86.095 Y127.800 E4.27361
G1 X84.190 Y124.500 E4.36959
G1 X86.095 Y121.200 E4.46557
G1 X89.905 Y121.200 E4.56155
G1 X91.780 Y124.448 E4.65601
G1 X92.117 Y124.757 F7800.000
G1 E2.65601 F2400.00000
G92 E0
G1 X85.298 Y127.820 F7800.000
G1 X85.298 Y127.820 F7800.000
G1 X83.500 Y128.858 F7800.000
G1 X83.500 Y124.706 F7800.000
G1 X83.429 Y124.500 F7800.000
G1 E2.00000 F2400.00000
G1 X81.214 Y128.336 E2.11156 F900.000
G1 X76.786 Y128.336 E2.22312
G1 X74.571 Y124.500 E2.33467
G1 X76.786 Y120.664 E2.44623
G1 X81.214 Y120.664 E2.55779
G1 X83.399 Y124.448 E2.66784
G1 X82.810 Y124.500 F7800.000
G1 X80.905 Y127.800 E2.76382 F900.000
G1 X77.095 Y127.800 E2.85980
G1 X75.190 Y124.500 E2.95578
G1 X77.095 Y121.200 E3.05176
G1 X80.905 Y121.200 E3.14773
G1 X82.780 Y124.448 E3.24220
G1 X83.117 Y124.757 F7800.000
G1 E1.24220 F2400.00000
G92 E0
G1 X74.381 Y124.500 F7800.000
G1 X67.000 Y120.238 F7800.000
G1 X67.000 Y120.238 F7800.000
G1 X59.619 Y124.500 F7800.000
G1 X60.047 Y124.500 F7800.000
G1 E2.00000 F2400.00000
G1 X57.524 Y128.871 E2.12714 F900.000
G1 X52.476 Y128.871 E2.25427
G1 X49.953 Y124.500 E2.38141
G1 X52.476 Y120.129 E2.50855
G1 X57.524 Y120.129 E2.63568
G1 X60.017 Y124.448 E2.76131
G1 X59.429 Y124.500 F7800.000
G1 X57.214 Y128.336 E2.87287 F900.000
G1 X52.786 Y128.336 E2.98442
G1 X50.571 Y124.500 E3.09598
G1 X52.786 Y120.664 E3.20754
G1 X57.214 Y120.664 E3.31910
G1 X59.399 Y124.448 E3.42914
G1 X58.810 Y124.500 F7800.000
G1 X56.905 Y127.800 E3.52512 F900.000
G1 X53.095 Y127.800 E3.62110
G1 X51.190 Y124.500 E3.71708
G1 X53.095 Y121.200 E3.81306
G1 X56.905 Y121.200 E3.90904
G1 X58.780 Y124.448 E4.00351
G1 X59.117 Y124.757 F7800.000
G1 X52.476 Y79.871 F7800.000
G1 X49.953 Y75.500 E4.13065 F900.000
G1 X52.476 Y71.129 E4.25778
G1 X57.524 Y71.129 E4.38492
G1 X60.047 Y75.500 E4.51205
G1 X57.524 Y79.871 E4.63919
G1 X52.536 Y79.871 E4.76482
G1 X52.786 Y79.336 F7800.000
G1 X50.571 Y75.500 E4.87637 F900.000
G1 X52.786 Y71.664 E4.98793
G1 X57.214 Y71.664 E5.09949
G1 X59.429 Y75.500 E5.21105
G1 X57.214 Y79.336 E5.32261
G1 X52.846 Y79.336 E5.43265
G1 X53.095 Y78.800 F7800.000
G1 X51.190 Y75.500 E5.52863 F900.000
G1 X53.095 Y72.200 E5.62461
G1 X56.905 Y72.200 E5.72059
G1 X58.810 Y75.500 E5.81657
G1 X56.905 Y78.800 E5.91255
G1 X53.155 Y78.800 E6.00702
G1 X52.719 Y78.937 F7800.000
G1 E4.00702 F2400.00000
G92 E0
G1 X59.619 Y75.500 F7800.000
G1 X67.000 Y79.762 F7800.000
G1 X67.000 Y79.762 F7800.000
G1 X74.381 Y75.500 F7800.000
G1 X73.953 Y75.500 F7800.000
G1 E2.00000 F2400.00000
G1 X76.476 Y71.129 E2.12714 F900.000
G1 X81.524 Y71.129 E2.25427
G1 X83.500 Y74.552 E2.35383
G1 X85.476 Y71.129 E2.45339
G1 X90.524 Y71.129 E2.58052
G1 X93.047 Y75.500 E2.70766
G1 X90.524 Y79.871 E2.83480
G1 X85.476 Y79.871 E2.96193
G1 X83.500 Y76.448 E3.06149
G1 X81.524 Y79.871 E3.16105
G1 X76.476 Y79.871 E3.28819
G1 X73.983 Y75.552 E3.41381
G1 E1.41381 F2400.00000
G92 E0
G1 X67.000 Y79.762 F7800.000
G1 X67.000 Y84.221 F7800.000
G1 X76.312 Y78.845 F7800.000
G1 X83.571 Y75.500 F7800.000
G1 E2.00000 F2400.00000
G1 X85.786 Y71.664 E2.11156 F900.000
G1 X90.214 Y71.664 E2.22312
G1 X92.429 Y75.500 E2.33467
G1 X90.214 Y79.336 E2.44623
G1 X85.786 Y79.336 E2.55779
G1 X83.601 Y75.552 E2.66784
G1 X84.190 Y75.500 F7800.000
G1 X86.095 Y72.200 E2.76382 F900.000
G1 X89.905 Y72.200 E2.85980
G1 X91.810 Y75.500 E2.95578
G1 X89.905 Y78.800 E3.05176
G1 X86.095 Y78.800 E3.14773
G1 X84.220 Y75.552 E3.24220
G1 X83.883 Y75.243 F7800.000
G1 X83.429 Y75.500 F7800.000
G1 X81.214 Y79.336 E3.35376 F900.000
G1 X76.786 Y79.336 E3.46532
G1 X74.571 Y75.500 E3.57688
G1 X76.786 Y71.664 E3.68844
G1 X81.214 Y71.664 E3.79999
G1 X83.399 Y75.448 E3.91004
G1 X82.810 Y75.500 F7800.000
G1 X80.905 Y78.800 E4.00602 F900.000
G1 X77.095 Y78.800 E4.10200
G1 X75.190 Y75.500 E4.19798
G1 X77.095 Y72.200 E4.29396
G1 X80.905 Y72.200 E4.38994
G1 X82.780 Y75.448 E4.48441
G1 X83.117 Y75.757 F7800.000
G1 E2.48441 F2400.00000
G92 E0
G1 X92.619 Y75.500 F7800.000
G1 X100.000 Y72.844 F7800.000
G1 X105.938 Y69.333 F7800.000
G1 X109.691 Y71.500 F7800.000
G1 X109.476 Y71.129 F7800.000
G1 E2.00000 F2400.00000
G1 X114.524 Y71.129 E2.12714 F900.000
G1 X116.500 Y74.552 E2.22669
G1 X118.476 Y71.129 E2.32625
G1 X123.524 Y71.129 E2.45339
G1 X126.047 Y75.500 E2.58052
G1 X123.524 Y79.871 E2.70766
G1 X118.476 Y79.871 E2.83480
G1 X116.500 Y76.448 E2.93436
G1 X114.524 Y79.871 E3.03391
G1 X109.476 Y79.871 E3.16105
G1 X106.953 Y75.500 E3.28819
G1 X109.446 Y71.181 E3.41381
G1 X109.691 Y71.500 F7800.000
G1 X114.309 Y68.250 F7800.000
G1 X114.309 Y71.500 F7800.000
G1 X116.571 Y75.500 F7800.000
G1 X118.786 Y71.664 E3.52537 F900.000
G1 X123.214 Y71.664 E3.63693
G1 X125.429 Y75.500 E3.74849
G1 X123.214 Y79.336 E3.86004
G1 X118.786 Y79.336 E3.97160
